svgs/regular/warehouse.svg

<svg xmlns="http://www.w3.org/2000/svg" viewBox="0 0 640 512"><!-- Font Awesome Pro 6.0.0-alpha2 by @fontawesome - https://fontawesome.com License - https://fontawesome.com/license (Commercial License) --><path d="M597.876 110.125L346.251 5.25C329.501 -1.75 310.501 -1.75 293.751 5.25L42.126 110.125C16.501 120.625 -0.124 145.625 0.001 173.25V488C0.001 501.254 10.747 512 24.001 512C37.257 512 48.001 501.254 48.001 488V173.25C48.001 165 52.876 157.5 60.501 154.375L312.251 49.625C317.251 47.5 322.876 47.5 327.876 49.625L579.501 154.375C587.126 157.625 592.001 165 592.001 173.25V488C592.001 501.254 602.747 512 616.001 512C629.257 512 640.001 501.254 640.001 488V173.25C640.126 145.625 623.501 120.625 597.876 110.125ZM504.001 192H136.001C113.911 192 96.001 209.908 96.001 232V488C96.001 501.254 106.747 512 120.001 512C133.257 512 144.001 501.254 144.001 488V464H496.001V488C496.001 501.254 506.747 512 520.001 512C533.257 512 544.001 501.254 544.001 488V232C544.001 209.908 526.092 192 504.001 192ZM496.001 416H144.001V352H496.001V416ZM496.001 304H144.001V240H496.001V304Z"/></svg>

<svg xmlns="http://www.w3.org/2000/svg" viewBox="0 0 640 512"><!--! Font Awesome Pro 6.0.0-alpha3 by @fontawesome - https://fontawesome.com License - https://fontawesome.com/license (Commercial License) --><path d="M597.9 110.1l-251.6-104.9c-16.75-7-35.75-7-52.5 0L42.13 110.1C16.5 120.6-.125 145.6 0 173.3V488C0 501.3 10.75 512 24 512c13.26 0 24-10.75 24-24V173.3C48 165 52.88 157.5 60.5 154.4l251.8-104.8c5-2.125 10.62-2.125 15.62 0l251.6 104.8C587.1 157.6 592 165 592 173.3V488c0 13.25 10.75 24 24 24c13.26 0 24-10.75 24-24V173.3C640.1 145.6 623.5 120.6 597.9 110.1zM504 192H136C113.9 192 96 209.9 96 232v256C96 501.3 106.7 512 120 512c13.26 0 24-10.75 24-24V464h352v24c0 13.25 10.75 24 24 24c13.26 0 24-10.75 24-24v-256C544 209.9 526.1 192 504 192zM496 416h-352v-64h352V416zM496 304h-352v-64h352V304z"/></svg>
